X:1
T:Schottis efter Albert Remelin
M:2/4
L:1/16
N:Albert Remelin var fiolbyggare från Listerby-Mjällby. Upptecknad efter August Fagelström av Lena Krook
Z:Andy Davey 2018
K:G
D2 | G2GA BAGB | dcBd g2e2 | d2AB cAFA | GFGA G2D2 | 
       G2GA BAGB | dcBd g2e2 | d2AB cAFA | G6 :|
dc | B2DG B2cB | AFAB c2fe | d2fe d2fe | dcBA G2DD | 
   | DB,DG B2cB | AFAB c2ff | feef a3f | g6 :|

